libs/icons/src/svg/enlarge-vertical.svg

<svg width="16" height="16" viewBox="0 0 16 16" fill="none" xmlns="http://www.w3.org/2000/svg">
<path d="M10.8667 10.85L8.66667 13.05V2.91667L10.8667 5.11667C11 5.25001 11.1333 5.31667 11.3333 5.31667C11.5333 5.31667 11.6667 5.25001 11.8 5.11667C12.0667 4.85001 12.0667 4.45001 11.8 4.18334L8.46667 0.850005C8.4 0.783338 8.33333 0.716672 8.26667 0.716672C8.06667 0.650005 7.93333 0.650005 7.73333 0.716672C7.66667 0.716672 7.6 0.783338 7.53333 0.850005L4.2 4.18334C3.93333 4.45001 3.93333 4.85001 4.2 5.11667C4.46667 5.38334 4.86667 5.38334 5.13333 5.11667L7.33333 2.91667V13.05L5.13333 10.85C4.86667 10.5833 4.46667 10.5833 4.2 10.85C3.93333 11.1167 3.93333 11.5167 4.2 11.7833L7.53333 15.1167C7.6 15.1833 7.66667 15.25 7.73333 15.25C7.8 15.3167 7.93333 15.3167 8 15.3167C8.06667 15.3167 8.2 15.3167 8.26667 15.25C8.33333 15.1833 8.4 15.1833 8.46667 15.1167L11.8 11.7833C12.0667 11.5167 12.0667 11.1167 11.8 10.85C11.5333 10.5833 11.1333 10.5833 10.8667 10.85Z" fill="#202327"/>
</svg>

<svg xmlns="http://www.w3.org/2000/svg" viewBox="0 0 16 16" class="sageicon"><path d="m10.867 10.85-2.2 2.2V2.917l2.2 2.2c.133.133.266.2.466.2s.334-.067.467-.2a.644.644 0 0 0 0-.934L8.467.85C8.4.783 8.333.717 8.267.717a.736.736 0 0 0-.534 0c-.066 0-.133.066-.2.133L4.2 4.183a.644.644 0 0 0 0 .934.644.644 0 0 0 .933 0l2.2-2.2V13.05l-2.2-2.2a.644.644 0 0 0-.933 0 .644.644 0 0 0 0 .933l3.333 3.334c.067.066.134.133.2.133.067.067.2.067.267.067s.2 0 .267-.067c.066-.067.133-.067.2-.133l3.333-3.334a.644.644 0 0 0 0-.933.644.644 0 0 0-.933 0Z"/></svg>
